img/rounds.svg

<svg width="428" height="361" viewBox="0 0 428 361" fill="none" xmlns="http://www.w3.org/2000/svg">
<path d="M353.717 55.9077C344.391 36.485 352.576 13.1794 371.998 3.85316C391.421 -5.47307 414.726 2.71172 424.053 22.1344C433.379 41.5571 425.194 64.8627 405.771 74.1889C386.349 83.5151 363.043 75.3303 353.717 55.9077Z" fill="#957163" fill-opacity="0.12"/>
<path d="M260.759 200.181C242.857 162.897 258.568 118.16 295.852 100.258C333.135 82.3552 377.872 98.0666 395.775 135.35C413.677 172.634 397.966 217.371 360.682 235.273C323.399 253.176 278.662 237.465 260.759 200.181Z" fill="#957163" fill-opacity="0.1"/>
<path d="M11.4582 294.558C-16.2754 236.8 8.06391 167.495 65.8217 139.762C123.58 112.028 192.884 136.367 220.618 194.125C248.351 251.883 224.012 321.188 166.254 348.921C108.496 376.655 39.1919 352.316 11.4582 294.558Z" fill="#957163" fill-opacity="0.12"/>
</svg>

<svg width="428" height="361" fill="none" xmlns="http://www.w3.org/2000/svg"><path d="M353.717 55.908c-9.326-19.423-1.141-42.729 18.281-52.055 19.423-9.326 42.728-1.141 52.055 18.281 9.326 19.423 1.141 42.729-18.282 52.055-19.422 9.326-42.728 1.141-52.054-18.281z" fill="#957163" fill-opacity=".12"/><path d="M260.759 200.181c-17.902-37.284-2.191-82.021 35.093-99.923 37.283-17.903 82.02-2.191 99.923 35.092 17.902 37.284 2.191 82.021-35.093 99.923-37.283 17.903-82.02 2.192-99.923-35.092z" fill="#957163" fill-opacity=".1"/><path d="M11.458 294.558C-16.275 236.8 8.064 167.495 65.822 139.762c57.758-27.734 127.062-3.395 154.796 54.363 27.733 57.758 3.394 127.063-54.364 154.796-57.758 27.734-127.062 3.395-154.796-54.363z" fill="#957163" fill-opacity=".12"/></svg>
